X:2187
T:Gouyn dy Linsey Winsey 
C:Traditional
O:Isle of Man
S:Mrs Kennaugh 
Z:Clague collection
B:Kiaull Vannin #187 
N:There is no # in the original key signature, is the tue in myxolidian mode?
M:6/8 
L:1/8
Q:160 
K:G 
G2B c2A|B3 E2A|B2B B2G|B3-B3||:d2B c2A|B3 B2A|BBG AAF|G3 G3:| 

